packages/foundations/assets/icons/functional/images/social/share_28.svg

<svg width="28" height="28" viewBox="0 0 28 28" fill="none" xmlns="http://www.w3.org/2000/svg">
<g clip-path="url(#clip0_187_421)">
<path fill-rule="evenodd" clip-rule="evenodd" d="M21 3.5C22.9415 3.5 24.5 5.05855 24.5 7C24.5 8.94145 22.9415 10.5 21 10.5C19.9335 10.5 19.004 10.0352 18.3477 9.29688L10.4179 13.2617C10.4727 13.5078 10.5 13.754 10.5 14C10.5 14.246 10.4727 14.4922 10.4179 14.7383L18.3477 18.7031C19.004 17.9648 19.9335 17.5 21 17.5C22.9415 17.5 24.5 19.0585 24.5 21C24.5 22.9415 22.9415 24.5 21 24.5C19.0585 24.5 17.5 22.9415 17.5 21C17.5 20.754 17.5273 20.5078 17.5821 20.2617L9.625 16.2969C8.99605 17.0352 8.03906 17.5 7 17.5C5.05855 17.5 3.5 15.9415 3.5 14C3.5 12.0585 5.05855 10.5 7 10.5C8.06645 10.5 8.99605 10.9648 9.6523 11.7031L17.5821 7.73833C17.5273 7.49219 17.5 7.24605 17.5 7C17.5 5.05855 19.0585 3.5 21 3.5ZM21 19.25C20.0429 19.25 19.25 20.0429 19.25 21C19.25 21.9571 20.0429 22.75 21 22.75C21.9571 22.75 22.75 21.9571 22.75 21C22.75 20.0429 21.9571 19.25 21 19.25ZM7 12.25C6.04292 12.25 5.25 13.0429 5.25 14C5.25 14.9571 6.04292 15.75 7 15.75C7.95708 15.75 8.75 14.9571 8.75 14C8.75 13.0429 7.95708 12.25 7 12.25ZM21 5.25C20.0429 5.25 19.25 6.04292 19.25 7C19.25 7.95708 20.0429 8.75 21 8.75C21.9571 8.75 22.75 7.95708 22.75 7C22.75 6.04292 21.9571 5.25 21 5.25Z" fill="#1A1C1F"/>
</g>
<defs>
<clipPath id="clip0_187_421">
<rect width="28" height="28" fill="white"/>
</clipPath>
</defs>
</svg>

<svg xmlns="http://www.w3.org/2000/svg" width="28" height="28" fill="none"><g clip-path="url(#a)"><path fill="#1A1C1F" fill-rule="evenodd" d="M21 3.5A3.49 3.49 0 0 1 24.5 7a3.49 3.49 0 0 1-3.5 3.5 3.52 3.52 0 0 1-2.652-1.203l-7.93 3.965a3.4 3.4 0 0 1 0 1.476l7.93 3.965A3.52 3.52 0 0 1 21 17.5a3.49 3.49 0 0 1 3.5 3.5 3.49 3.49 0 0 1-3.5 3.5 3.49 3.49 0 0 1-3.418-4.238l-7.957-3.965A3.46 3.46 0 0 1 7 17.5 3.49 3.49 0 0 1 3.5 14 3.49 3.49 0 0 1 7 10.5c1.066 0 1.996.465 2.652 1.203l7.93-3.965A3.49 3.49 0 0 1 21 3.5m0 15.75c-.957 0-1.75.793-1.75 1.75s.793 1.75 1.75 1.75 1.75-.793 1.75-1.75-.793-1.75-1.75-1.75m-14-7c-.957 0-1.75.793-1.75 1.75s.793 1.75 1.75 1.75 1.75-.793 1.75-1.75-.793-1.75-1.75-1.75m14-7c-.957 0-1.75.793-1.75 1.75s.793 1.75 1.75 1.75 1.75-.793 1.75-1.75-.793-1.75-1.75-1.75" clip-rule="evenodd"/></g><defs><clipPath id="a"><path fill="#fff" d="M0 0h28v28H0z"/></clipPath></defs></svg>
